elementary-xfce/status/symbolic/location-inactive-symbolic.svg

<?xml version="1.0" encoding="UTF-8" standalone="no"?>
<svg
   id="svg6"
   version="1.1"
   width="16"
   height="16"
   xmlns="http://www.w3.org/2000/svg"
   xmlns:svg="http://www.w3.org/2000/svg"
   xmlns:rdf="http://www.w3.org/1999/02/22-rdf-syntax-ns#"
   xmlns:cc="http://creativecommons.org/ns#"
   xmlns:dc="http://purl.org/dc/elements/1.1/">
  <metadata
     id="metadata12">
    <rdf:RDF>
      <cc:Work
         rdf:about="">
        <dc:format>image/svg+xml</dc:format>
        <dc:type
           rdf:resource="http://purl.org/dc/dcmitype/StillImage" />
      </cc:Work>
    </rdf:RDF>
  </metadata>
  <defs
     id="defs10" />
  <path
     id="path2"
     style="color:#000000;overflow:visible;fill:#666666;marker:none;fill-opacity:1"
     d="m 13,2 c -0.149646,0.00371 -0.296752,0.041636 -0.429688,0.109375 l -11.0214839,5 C 1.2172238,7.2772663 1.0004502,7.6191741 1,8 1,8.5522834 1.4477165,9 2,9 h 5 v 5 c 0,0.552283 0.4477165,1 1,1 0.3895591,0 0.7255429,-0.223745 0.890625,-0.548828 L 13.916016,3.3984375 C 13.969523,3.2763476 13.999724,3.1412406 14,3 14,2.4477165 13.552283,2 13,2 Z M 13,3.0058594 8,14.003906 c -0.014335,0 -0.00391,0.01043 -0.00391,-0.0039 V 9 A 0.99548709,0.99548709 0 0 0 7,8.0039062 H 2 c -0.010751,0 -0.00597,0.00136 -0.00391,-0.00195 V 8 L 12.982422,3.015625 A 0.99548709,0.99548709 0 0 0 13,3.0058594 Z" />
</svg>

<?xml version="1.0" encoding="UTF-8" standalone="no"?>
<svg
   id="svg6"
   version="1.1"
   width="15.974"
   height="16"
   xmlns="http://www.w3.org/2000/svg"
   xmlns:svg="http://www.w3.org/2000/svg"
   xmlns:rdf="http://www.w3.org/1999/02/22-rdf-syntax-ns#"
   xmlns:cc="http://creativecommons.org/ns#"
   xmlns:dc="http://purl.org/dc/elements/1.1/">
  <metadata
     id="metadata12">
    <rdf:RDF>
      <cc:Work
         rdf:about="">
        <dc:format>image/svg+xml</dc:format>
        <dc:type
           rdf:resource="http://purl.org/dc/dcmitype/StillImage" />
      </cc:Work>
    </rdf:RDF>
  </metadata>
  <defs
     id="defs10" />
  <path
     id="path2"
     style="color:#000000;overflow:visible;fill:#666666;marker:none"
     d="M 13 2 C 12.850354 2.00371 12.703248 2.0416361 12.570312 2.109375 L 1.5488281 7.109375 C 1.2172238 7.2772663 1.0004502 7.6191741 1 8 C 1 8.5522834 1.4477165 9 2 9 L 7 9 L 7 14 C 7 14.552283 7.4477165 15 8 15 C 8.3895591 15 8.7255429 14.776255 8.890625 14.451172 L 13.916016 3.3984375 C 13.969523 3.2763476 13.999724 3.1412406 14 3 C 14 2.4477165 13.552283 2 13 2 z M 13 3.0058594 L 8 14.003906 C 7.9856648 14.003906 7.9960938 14.014335 7.9960938 14 L 7.9960938 9 A 0.99548709 0.99548709 0 0 0 7 8.0039062 L 2 8.0039062 C 1.9892486 8.0039062 1.9940312 8.0052663 1.9960938 8.0019531 L 1.9960938 8 L 12.982422 3.015625 A 0.99548709 0.99548709 0 0 0 13 3.0058594 z " />
</svg>
